AD-BlueAgave-Suru/apps/16/preferences-web-browser-adblock.svg

<svg xmlns="http://www.w3.org/2000/svg" width="16" height="16" version="1.1">
 <defs>
   <style id="current-color-scheme" type="text/css">
   .ColorScheme-Text { color: #d3dae3; } .ColorScheme-Highlight { color:#5294e2; }
  </style>
  <linearGradient id="arrongin" x1="0%" x2="0%" y1="0%" y2="100%">
   <stop offset="0%" style="stop-color:#dd9b44; stop-opacity:1"/>
   <stop offset="100%" style="stop-color:#ad6c16; stop-opacity:1"/>
  </linearGradient>
  <linearGradient id="aurora" x1="0%" x2="0%" y1="0%" y2="100%">
   <stop offset="0%" style="stop-color:#09D4DF; stop-opacity:1"/>
   <stop offset="100%" style="stop-color:#9269F4; stop-opacity:1"/>
  </linearGradient>
  <linearGradient id="cyberneon" x1="0%" x2="0%" y1="0%" y2="100%">
    <stop offset="0" style="stop-color:#0abdc6; stop-opacity:1"/>
    <stop offset="1" style="stop-color:#ea00d9; stop-opacity:1"/>
  </linearGradient>
  <linearGradient id="fitdance" x1="0%" x2="0%" y1="0%" y2="100%">
   <stop offset="0%" style="stop-color:#1AD6AB; stop-opacity:1"/>
   <stop offset="100%" style="stop-color:#329DB6; stop-opacity:1"/>
  </linearGradient>
  <linearGradient id="oomox" x1="0%" x2="0%" y1="0%" y2="100%">
   <stop offset="0%" style="stop-color:#59d2ff; stop-opacity:1"/>
   <stop offset="100%" style="stop-color:#008bbf; stop-opacity:1"/>
  </linearGradient>
  <linearGradient id="rainblue" x1="0%" x2="0%" y1="0%" y2="100%">
   <stop offset="0%" style="stop-color:#00F260; stop-opacity:1"/>
   <stop offset="100%" style="stop-color:#0575E6; stop-opacity:1"/>
  </linearGradient>
  <linearGradient id="sunrise" x1="0%" x2="0%" y1="0%" y2="100%">
   <stop offset="0%" style="stop-color: #FF8501; stop-opacity:1"/>
   <stop offset="100%" style="stop-color: #FFCB01; stop-opacity:1"/>
  </linearGradient>
  <linearGradient id="telinkrin" x1="0%" x2="0%" y1="0%" y2="100%">
   <stop offset="0%" style="stop-color: #b2ced6; stop-opacity:1"/>
   <stop offset="100%" style="stop-color: #6da5b7; stop-opacity:1"/>
  </linearGradient>
  <linearGradient id="60spsycho" x1="0%" x2="0%" y1="0%" y2="100%">
   <stop offset="0%" style="stop-color: #df5940; stop-opacity:1"/>
   <stop offset="25%" style="stop-color: #d8d15f; stop-opacity:1"/>
   <stop offset="50%" style="stop-color: #e9882a; stop-opacity:1"/>
   <stop offset="100%" style="stop-color: #279362; stop-opacity:1"/>
  </linearGradient>
  <linearGradient id="90ssummer" x1="0%" x2="0%" y1="0%" y2="100%">
   <stop offset="0%" style="stop-color: #f618c7; stop-opacity:1"/>
   <stop offset="20%" style="stop-color: #94ffab; stop-opacity:1"/>
   <stop offset="50%" style="stop-color: #fbfd54; stop-opacity:1"/>
   <stop offset="100%" style="stop-color: #0f83ae; stop-opacity:1"/>
  </linearGradient>
 </defs>
 <path fill="url(#oomox)" class="ColorScheme-Text" opacity="0.6" fill-rule="evenodd" d="m 12.316,1.297 -1,0.021 c 0.02,0.936 -0.075,1.85 -0.22,2.75 0.13,-0.037 0.263,-0.064 0.404,-0.064 0.214,0 0.416,0.048 0.602,0.13 0.143,-0.928 0.234,-1.871 0.214,-2.837 z M 4.383,1.559 C 4.269,2.933 4.24,4.312 4.297,5.689 4.508,5.575 4.745,5.504 5,5.504 5.101,5.504 5.2,5.516 5.297,5.535 5.247,4.276 5.267,2.979 5.379,1.643 Z M 0.516,3.406 0.5,3.428 V 4.619 C 1.45,5.299 2.417,5.957 3.398,6.592 2.386,7.01 1.416,7.522 0.5,8.122 V 9.291 L 0.516,9.313 C 1.487,8.627 2.532,8.053 3.631,7.6 3.545,7.411 3.501,7.207 3.5,7 3.5,6.523 3.733,6.099 4.086,5.824 2.874,5.051 1.683,4.245 0.516,3.406 Z M 15.912,4.629 C 14.872,4.652 13.832,4.695 12.793,4.758 12.921,4.978 13,5.229 13,5.5 13,5.585 12.988,5.667 12.975,5.748 13.961,5.69 14.947,5.65 15.934,5.628 Z M 10.098,4.986 C 8.631,5.153 7.211,5.401 5.848,5.77 6.146,5.976 6.364,6.288 6.453,6.648 7.619,6.354 8.835,6.148 10.093,6 10.033,5.84 10.002,5.671 10,5.5 10,5.32 10.038,5.147 10.098,4.986 Z M 11.5,5.004 C 11.367,5.001 11.239,5.053 11.145,5.146 11.051,5.24 10.998,5.367 11,5.5 c -0.003,0.179 0.092,0.345 0.247,0.434 0.155,0.088 0.347,0.085 0.499,-0.008 0.01,-0.036 0.022,-0.07 0.031,-0.106 0.034,-0.003 0.07,-0.003 0.104,-0.006 C 12.007,5.668 12.036,5.461 11.954,5.286 11.872,5.111 11.694,5 11.501,5.004 Z M 5,6.504 C 4.867,6.501 4.739,6.553 4.645,6.646 4.551,6.74 4.498,6.867 4.5,7 4.498,7.133 4.551,7.26 4.645,7.354 4.739,7.447 4.867,7.499 5,7.496 5.133,7.499 5.261,7.447 5.355,7.354 5.449,7.26 5.502,7.133 5.5,7 5.502,6.867 5.449,6.74 5.355,6.646 5.261,6.553 5.133,6.501 5,6.504 Z m 5.498,0.1 C 10.346,7.077 10.175,7.544 9.986,8.002 L 10,8 c 0.351,0 0.673,0.127 0.93,0.332 C 11.11,7.891 11.274,7.444 11.422,6.988 11.079,6.97 10.752,6.834 10.498,6.603 Z M 6.477,7.23 C 6.422,7.572 6.25,7.884 5.99,8.113 6.81,8.558 7.651,8.971 8.516,9.342 8.553,8.989 8.708,8.671 8.949,8.434 8.107,8.071 7.282,7.669 6.477,7.23 Z M 5.586,8.373 C 5.405,8.451 5.208,8.496 5,8.496 4.843,8.496 4.695,8.463 4.553,8.418 4.687,9.241 4.878,10.034 5.119,10.797 5.368,10.615 5.671,10.504 6,10.504 c 0.027,0 0.052,0.006 0.078,0.008 C 5.866,9.811 5.701,9.096 5.586,8.373 Z M 10,9 C 9.867,8.997 9.739,9.049 9.645,9.142 9.551,9.236 9.498,9.363 9.5,9.496 c 0,0.207 0.12,0.38 0.299,0.455 0.019,-0.02 0.041,-0.037 0.06,-0.058 0.08,0.029 0.164,0.051 0.245,0.08 C 10.334,9.931 10.501,9.73 10.5,9.496 10.502,9.363 10.449,9.236 10.355,9.142 10.261,9.049 10.133,8.997 10,9 Z m 1.486,0.365 c 0.004,0.044 0.014,0.086 0.014,0.131 0,0.313 -0.099,0.603 -0.266,0.844 1.502,0.437 3.06,0.713 4.678,0.748 l 0.022,-1 C 14.407,10.055 12.924,9.787 11.486,9.365 Z M 8.531,9.797 c -0.48,0.419 -1.009,0.775 -1.57,1.066 0.26,0.22 0.445,0.519 0.51,0.864 C 8.04,11.428 8.574,11.068 9.066,10.654 8.794,10.439 8.605,10.136 8.531,9.797 Z M 6,11.504 C 5.867,11.501 5.739,11.553 5.645,11.646 5.551,11.74 5.498,11.867 5.5,12 5.498,12.133 5.551,12.26 5.645,12.354 5.739,12.447 5.867,12.499 6,12.496 6.133,12.499 6.261,12.447 6.355,12.354 6.449,12.26 6.502,12.133 6.5,12 6.502,11.867 6.449,11.74 6.355,11.646 6.261,11.553 6.133,11.501 6,11.504 Z m -1.473,0.24 C 4.382,11.781 4.234,11.832 4.092,11.861 3.164,12.052 2.298,12.123 1.635,12.119 1.361,12.119 1.087,12.101 0.816,12.064 0.612,12.034 0.469,11.97 0.512,11.996 L 0.5,12.016 v 1.007 c 0.056,0.01 0.107,0.022 0.17,0.032 0.268,0.04 0.59,0.062 0.959,0.064 0.738,0.004 1.664,-0.072 2.664,-0.277 0.133,-0.028 0.274,-0.077 0.41,-0.11 C 4.572,12.51 4.502,12.258 4.5,12 c 0,-0.088 0.013,-0.173 0.027,-0.256 z m 2.618,1.207 c -0.222,0.269 -0.531,0.452 -0.874,0.518 0.236,0.402 0.49,0.792 0.776,1.162 l 0.79,-0.613 C 7.581,13.68 7.35,13.323 7.145,12.951 Z"/>
 <path fill="url(#oomox)" class="ColorScheme-Text" d="M 3.994,1 C 2.736,1.015 1.815,0.97 1.062,1.385 0.673,1.607 0.376,1.961 0.225,2.383 0.06,2.821 0,3.343 0,4 v 8 c 0,0.658 0.06,1.179 0.225,1.617 0.164,0.439 0.461,0.79 0.837,0.998 0.753,0.416 1.674,0.37 2.932,0.385 h 8.012 c 1.258,-0.015 2.179,0.03 2.932,-0.385 0.389,-0.222 0.687,-0.576 0.838,-0.998 C 15.94,13.179 16,12.657 16,12 V 4 C 16,3.342 15.94,2.821 15.775,2.383 15.624,1.961 15.327,1.607 14.938,1.385 14.185,0.969 13.264,1.015 12.006,1 H 3.998 Z M 4,2 h 8 c 1.259,0.015 2.087,0.06 2.453,0.262 0.184,0.1 0.29,0.212 0.387,0.472 C 14.937,2.994 15,3.408 15,4 v 8 c 0,0.592 -0.063,1.006 -0.16,1.266 -0.098,0.26 -0.203,0.371 -0.387,0.472 C 14.087,13.94 13.259,13.985 12,14 H 4 C 2.741,13.985 1.91,13.94 1.545,13.738 1.362,13.638 1.258,13.526 1.16,13.266 1.063,13.006 1,12.592 1,12 V 4 C 1,3.408 1.063,2.994 1.16,2.734 1.258,2.474 1.362,2.363 1.545,2.262 1.911,2.06 2.741,2.015 4,2 Z"/>
 <path fill="#eab305" fill-rule="evenodd" d="M 8.283 10.418 L 7.547 10.418 L 7.166 9.322 L 5.238 9.322 L 4.849 10.418 L 4.114 10.418 L 5.837 5.65 L 6.566 5.65 L 8.283 10.418 Z M 5.456 8.695 L 6.948 8.695 L 6.369 7.074 L 6.369 7.074 Q 6.246 6.74 6.205 6.535 L 6.205 6.535 L 6.205 6.535 Q 6.144 6.781 6.042 7.074 L 6.042 7.074 L 5.456 8.695 Z M 10.354 10.5 L 10.354 10.5 L 10.354 10.5 Q 9.693 10.5 9.301 10.013 L 9.301 10.013 L 9.301 10.013 Q 8.909 9.526 8.909 8.674 L 8.909 8.674 L 8.909 8.674 Q 8.909 7.83 9.308 7.343 L 9.308 7.343 L 9.308 7.343 Q 9.706 6.856 10.354 6.856 L 10.354 6.856 L 10.354 6.856 Q 10.864 6.856 11.178 7.183 L 11.178 7.183 L 11.178 5.827 L 11.886 5.5 L 11.886 10.418 L 11.178 10.418 L 11.178 10.173 L 11.178 10.173 Q 10.885 10.5 10.354 10.5 Z M 10.456 9.832 L 10.456 9.832 L 10.456 9.832 Q 10.933 9.832 11.178 9.437 L 11.178 9.437 L 11.178 7.905 L 11.178 7.905 Q 11.082 7.748 10.895 7.636 L 10.895 7.636 L 10.895 7.636 Q 10.708 7.523 10.456 7.523 L 10.456 7.523 L 10.456 7.523 Q 10.054 7.523 9.836 7.823 L 9.836 7.823 L 9.836 7.823 Q 9.618 8.123 9.618 8.674 L 9.618 8.674 L 9.618 8.674 Q 9.618 9.192 9.843 9.512 L 9.843 9.512 L 9.843 9.512 Q 10.067 9.832 10.456 9.832 Z"/>
 <path fill="#ed3146" fill-rule="evenodd" d="M 11.524 4.635 C 11.498 4.608 11.472 4.581 11.445 4.555 C 10.532 3.642 9.287 3.123 8 3.123 C 6.703 3.123 5.468 3.642 4.555 4.555 C 3.631 5.468 3.123 6.713 3.123 8 L 3.123 8 C 3.123 8.938 3.389 9.844 3.885 10.619 L 11.508 4.648 L 11.524 4.635 Z M 11.923 5.11 C 12.537 5.943 12.877 6.958 12.877 8 C 12.877 9.297 12.358 10.532 11.445 11.445 C 10.532 12.369 9.287 12.877 8 12.877 C 6.703 12.877 5.468 12.369 4.555 11.445 C 4.449 11.341 4.348 11.232 4.254 11.119 L 11.892 5.136 L 11.923 5.11 Z M 2.5 8 C 2.5 6.547 3.081 5.146 4.108 4.108 C 5.136 3.081 6.537 2.5 8 2.5 C 9.453 2.5 10.854 3.081 11.892 4.108 C 12.919 5.146 13.5 6.547 13.5 8 C 13.5 9.463 12.919 10.864 11.892 11.892 C 10.854 12.919 9.453 13.5 8 13.5 C 6.537 13.5 5.136 12.919 4.108 11.892 C 3.081 10.864 2.5 9.463 2.5 8 L 2.5 8 Z"/>
</svg>

<svg xmlns="http://www.w3.org/2000/svg" style="isolation:isolate" width="16" height="16" viewBox="0 0 16 16">
 <defs>
  <style id="current-color-scheme" type="text/css">
   .ColorScheme-Text { color:#d3dae3; } .ColorScheme-Highlight { color:#5294e2; }
  </style>
  <linearGradient id="arrongin" x1="0%" x2="0%" y1="0%" y2="100%">
   <stop offset="0%" style="stop-color:#dd9b44; stop-opacity:1"/>
   <stop offset="100%" style="stop-color:#ad6c16; stop-opacity:1"/>
  </linearGradient>
  <linearGradient id="aurora" x1="0%" x2="0%" y1="0%" y2="100%">
   <stop offset="0%" style="stop-color:#09D4DF; stop-opacity:1"/>
   <stop offset="100%" style="stop-color:#9269F4; stop-opacity:1"/>
  </linearGradient>
  <linearGradient id="fitdance" x1="0%" x2="0%" y1="0%" y2="100%">
   <stop offset="0%" style="stop-color:#1AD6AB; stop-opacity:1"/>
   <stop offset="100%" style="stop-color:#329DB6; stop-opacity:1"/>
  </linearGradient>
  <linearGradient id="oomox" x1="0%" x2="0%" y1="0%" y2="100%">
   <stop offset="0%" style="stop-color:#4ccfff; stop-opacity:1"/>
   <stop offset="100%" style="stop-color:#0095cc; stop-opacity:1"/>
  </linearGradient>
  <linearGradient id="rainblue" x1="0%" x2="0%" y1="0%" y2="100%">
   <stop offset="0%" style="stop-color:#00F260; stop-opacity:1"/>
   <stop offset="100%" style="stop-color:#0575E6; stop-opacity:1"/>
  </linearGradient>
  <linearGradient id="sunrise" x1="0%" x2="0%" y1="0%" y2="100%">
   <stop offset="0%" style="stop-color: #FF8501; stop-opacity:1"/>
   <stop offset="100%" style="stop-color: #FFCB01; stop-opacity:1"/>
  </linearGradient>
  <linearGradient id="telinkrin" x1="0%" x2="0%" y1="0%" y2="100%">
   <stop offset="0%" style="stop-color: #b2ced6; stop-opacity:1"/>
   <stop offset="100%" style="stop-color: #6da5b7; stop-opacity:1"/>
  </linearGradient>
  <linearGradient id="60spsycho" x1="0%" x2="0%" y1="0%" y2="100%">
   <stop offset="0%" style="stop-color: #df5940; stop-opacity:1"/>
   <stop offset="25%" style="stop-color: #d8d15f; stop-opacity:1"/>
   <stop offset="50%" style="stop-color: #e9882a; stop-opacity:1"/>
   <stop offset="100%" style="stop-color: #279362; stop-opacity:1"/>
  </linearGradient>
  <linearGradient id="90ssummer" x1="0%" x2="0%" y1="0%" y2="100%">
   <stop offset="0%" style="stop-color: #f618c7; stop-opacity:1"/>
   <stop offset="20%" style="stop-color: #94ffab; stop-opacity:1"/>
   <stop offset="50%" style="stop-color: #fbfd54; stop-opacity:1"/>
   <stop offset="100%" style="stop-color: #0f83ae; stop-opacity:1"/>
  </linearGradient>
  <clipPath id="_clipPath_LAI3L0p4CVABDNnaVaSpIJS6z7gA4mvR">
   <rect width="16" height="16"/>
  </clipPath>
 </defs>
 <g clip-path="url(#_clipPath_LAI3L0p4CVABDNnaVaSpIJS6z7gA4mvR)">
  <rect style="fill:#000000" fill-opacity="0" width="16" height="16"/>
  <path style="fill:url(#oomox)" class="ColorScheme-Text" d="M 3.994 1 C 2.736 1.015 1.815 0.97 1.062 1.385 C 0.673 1.607 0.376 1.961 0.225 2.383 C 0.06 2.821 0 3.343 0 4 L 0 12 C 0 12.658 0.06 13.179 0.225 13.617 C 0.389 14.056 0.686 14.407 1.062 14.615 C 1.815 15.031 2.736 14.985 3.994 15 L 12.006 15 C 13.264 14.985 14.185 15.03 14.938 14.615 C 15.327 14.393 15.625 14.039 15.776 13.617 C 15.94 13.179 16 12.657 16 12 L 16 4 C 16 3.342 15.94 2.821 15.775 2.383 C 15.624 1.961 15.327 1.607 14.938 1.385 C 14.185 0.969 13.264 1.015 12.006 1 L 3.998 1 L 3.994 1 Z M 4 2 L 12 2 C 13.259 2.015 14.087 2.06 14.453 2.262 C 14.637 2.362 14.743 2.474 14.84 2.734 C 14.937 2.994 15 3.408 15 4 L 15 12 C 15 12.592 14.937 13.006 14.84 13.266 C 14.742 13.526 14.637 13.637 14.453 13.738 C 14.087 13.94 13.259 13.985 12 14 L 4 14 C 2.741 13.985 1.91 13.94 1.545 13.738 C 1.362 13.638 1.258 13.526 1.16 13.266 C 1.063 13.006 1 12.592 1 12 L 1 4 C 1 3.408 1.063 2.994 1.16 2.734 C 1.258 2.474 1.362 2.363 1.545 2.262 C 1.911 2.06 2.741 2.015 4 2 Z"/>
  <g opacity=".5">
   <path style="fill:url(#oomox)" class="ColorScheme-Text" fill-rule="evenodd" d="M 12.316 1.297 L 11.316 1.318 C 11.336 2.254 11.241 3.168 11.096 4.068 C 11.226 4.031 11.359 4.004 11.5 4.004 C 11.714 4.004 11.916 4.052 12.102 4.134 C 12.245 3.206 12.336 2.263 12.316 1.297 Z M 4.383 1.559 C 4.269 2.933 4.24 4.312 4.297 5.689 C 4.508 5.575 4.745 5.504 5 5.504 C 5.101 5.504 5.2 5.516 5.297 5.535 C 5.247 4.276 5.267 2.979 5.379 1.643 L 4.383 1.559 Z M 0.516 3.406 L 0.5 3.428 L 0.5 4.619 C 1.45 5.299 2.417 5.957 3.398 6.592 C 2.386 7.01 1.416 7.522 0.5 8.122 L 0.5 9.291 L 0.516 9.313 C 1.487 8.627 2.532 8.053 3.631 7.6 C 3.545 7.411 3.501 7.207 3.5 7 C 3.5 6.523 3.733 6.099 4.086 5.824 C 2.874 5.051 1.683 4.245 0.516 3.406 L 0.516 3.406 Z M 15.912 4.629 C 14.872 4.652 13.832 4.695 12.793 4.758 C 12.921 4.978 13 5.229 13 5.5 C 13 5.585 12.988 5.667 12.975 5.748 C 13.961 5.69 14.947 5.65 15.934 5.628 L 15.912 4.629 Z M 10.098 4.986 C 8.631 5.153 7.211 5.401 5.848 5.77 C 6.146 5.976 6.364 6.288 6.453 6.648 C 7.619 6.354 8.835 6.148 10.093 6 C 10.033 5.84 10.002 5.671 10 5.5 C 10 5.32 10.038 5.147 10.098 4.986 L 10.098 4.986 Z M 11.5 5.004 C 11.367 5.001 11.239 5.053 11.145 5.146 C 11.051 5.24 10.998 5.367 11 5.5 C 10.997 5.679 11.092 5.845 11.247 5.934 C 11.402 6.022 11.594 6.019 11.746 5.926 C 11.756 5.89 11.768 5.856 11.777 5.82 C 11.811 5.817 11.847 5.817 11.881 5.814 C 12.007 5.668 12.036 5.461 11.954 5.286 C 11.872 5.111 11.694 5 11.501 5.004 L 11.5 5.004 Z M 5 6.504 C 4.867 6.501 4.739 6.553 4.645 6.646 C 4.551 6.74 4.498 6.867 4.5 7 C 4.498 7.133 4.551 7.26 4.645 7.354 C 4.739 7.447 4.867 7.499 5 7.496 C 5.133 7.499 5.261 7.447 5.355 7.354 C 5.449 7.26 5.502 7.133 5.5 7 C 5.502 6.867 5.449 6.74 5.355 6.646 C 5.261 6.553 5.133 6.501 5 6.504 L 5 6.504 Z M 10.498 6.604 C 10.346 7.077 10.175 7.544 9.986 8.002 L 10 8 C 10.351 8 10.673 8.127 10.93 8.332 C 11.11 7.891 11.274 7.444 11.422 6.988 C 11.079 6.97 10.752 6.834 10.498 6.603 L 10.498 6.604 Z M 6.477 7.23 C 6.422 7.572 6.25 7.884 5.99 8.113 C 6.81 8.558 7.651 8.971 8.516 9.342 C 8.553 8.989 8.708 8.671 8.949 8.434 C 8.107 8.071 7.282 7.669 6.477 7.23 L 6.477 7.23 Z M 5.586 8.373 C 5.405 8.451 5.208 8.496 5 8.496 C 4.843 8.496 4.695 8.463 4.553 8.418 C 4.687 9.241 4.878 10.034 5.119 10.797 C 5.368 10.615 5.671 10.504 6 10.504 C 6.027 10.504 6.052 10.51 6.078 10.512 C 5.866 9.811 5.701 9.096 5.586 8.373 L 5.586 8.373 Z M 10 9 C 9.867 8.997 9.739 9.049 9.645 9.142 C 9.551 9.236 9.498 9.363 9.5 9.496 C 9.5 9.703 9.62 9.876 9.799 9.951 C 9.818 9.931 9.84 9.914 9.859 9.893 C 9.939 9.922 10.023 9.944 10.104 9.973 C 10.334 9.931 10.501 9.73 10.5 9.496 C 10.502 9.363 10.449 9.236 10.355 9.142 C 10.261 9.049 10.133 8.997 10 9 L 10 9 Z M 11.486 9.365 C 11.49 9.409 11.5 9.451 11.5 9.496 C 11.5 9.809 11.401 10.099 11.234 10.34 C 12.736 10.777 14.294 11.053 15.912 11.088 L 15.934 10.088 C 14.407 10.055 12.924 9.787 11.486 9.365 L 11.486 9.365 Z M 8.531 9.797 C 8.051 10.216 7.522 10.572 6.961 10.863 C 7.221 11.083 7.406 11.382 7.471 11.727 C 8.04 11.428 8.574 11.068 9.066 10.654 C 8.794 10.439 8.605 10.136 8.531 9.797 L 8.531 9.797 Z M 6 11.504 C 5.867 11.501 5.739 11.553 5.645 11.646 C 5.551 11.74 5.498 11.867 5.5 12 C 5.498 12.133 5.551 12.26 5.645 12.354 C 5.739 12.447 5.867 12.499 6 12.496 C 6.133 12.499 6.261 12.447 6.355 12.354 C 6.449 12.26 6.502 12.133 6.5 12 C 6.502 11.867 6.449 11.74 6.355 11.646 C 6.261 11.553 6.133 11.501 6 11.504 Z M 4.527 11.744 C 4.382 11.781 4.234 11.832 4.092 11.861 C 3.164 12.052 2.298 12.123 1.635 12.119 C 1.361 12.119 1.087 12.101 0.816 12.064 C 0.612 12.034 0.469 11.97 0.512 11.996 L 0.5 12.016 L 0.5 13.023 C 0.556 13.033 0.607 13.045 0.67 13.055 C 0.938 13.095 1.26 13.117 1.629 13.119 C 2.367 13.123 3.293 13.047 4.293 12.842 C 4.426 12.814 4.567 12.765 4.703 12.732 C 4.572 12.51 4.502 12.258 4.5 12 C 4.5 11.912 4.513 11.827 4.527 11.744 L 4.527 11.744 Z M 7.145 12.951 C 6.923 13.22 6.614 13.403 6.271 13.469 C 6.507 13.871 6.761 14.261 7.047 14.631 L 7.837 14.018 C 7.581 13.68 7.35 13.323 7.145 12.951 L 7.145 12.951 Z"/>
  </g>
  <path style="fill:url(#oomox)" class="ColorScheme-Text" fill-rule="evenodd" d="M 8.283 10.418 L 7.547 10.418 L 7.166 9.322 L 5.238 9.322 L 4.849 10.418 L 4.114 10.418 L 5.837 5.65 L 6.566 5.65 L 8.283 10.418 Z M 5.456 8.695 L 6.948 8.695 L 6.369 7.074 L 6.369 7.074 Q 6.246 6.74 6.205 6.535 L 6.205 6.535 L 6.205 6.535 Q 6.144 6.781 6.042 7.074 L 6.042 7.074 L 5.456 8.695 Z M 10.354 10.5 L 10.354 10.5 L 10.354 10.5 Q 9.693 10.5 9.301 10.013 L 9.301 10.013 L 9.301 10.013 Q 8.909 9.526 8.909 8.674 L 8.909 8.674 L 8.909 8.674 Q 8.909 7.83 9.308 7.343 L 9.308 7.343 L 9.308 7.343 Q 9.706 6.856 10.354 6.856 L 10.354 6.856 L 10.354 6.856 Q 10.864 6.856 11.178 7.183 L 11.178 7.183 L 11.178 5.827 L 11.886 5.5 L 11.886 10.418 L 11.178 10.418 L 11.178 10.173 L 11.178 10.173 Q 10.885 10.5 10.354 10.5 Z M 10.456 9.832 L 10.456 9.832 L 10.456 9.832 Q 10.933 9.832 11.178 9.437 L 11.178 9.437 L 11.178 7.905 L 11.178 7.905 Q 11.082 7.748 10.895 7.636 L 10.895 7.636 L 10.895 7.636 Q 10.708 7.523 10.456 7.523 L 10.456 7.523 L 10.456 7.523 Q 10.054 7.523 9.836 7.823 L 9.836 7.823 L 9.836 7.823 Q 9.618 8.123 9.618 8.674 L 9.618 8.674 L 9.618 8.674 Q 9.618 9.192 9.843 9.512 L 9.843 9.512 L 9.843 9.512 Q 10.067 9.832 10.456 9.832 Z"/>
  <path fill="#DF2020" fill-rule="evenodd" d="M 11.524 4.635 C 11.498 4.608 11.472 4.581 11.445 4.555 C 10.532 3.642 9.287 3.123 8 3.123 C 6.703 3.123 5.468 3.642 4.555 4.555 C 3.631 5.468 3.123 6.713 3.123 8 L 3.123 8 C 3.123 8.938 3.389 9.844 3.885 10.619 L 11.508 4.648 L 11.524 4.635 Z M 11.923 5.11 C 12.537 5.943 12.877 6.958 12.877 8 C 12.877 9.297 12.358 10.532 11.445 11.445 C 10.532 12.369 9.287 12.877 8 12.877 C 6.703 12.877 5.468 12.369 4.555 11.445 C 4.449 11.341 4.348 11.232 4.254 11.119 L 11.892 5.136 L 11.923 5.11 Z M 2.5 8 C 2.5 6.547 3.081 5.146 4.108 4.108 C 5.136 3.081 6.537 2.5 8 2.5 C 9.453 2.5 10.854 3.081 11.892 4.108 C 12.919 5.146 13.5 6.547 13.5 8 C 13.5 9.463 12.919 10.864 11.892 11.892 C 10.854 12.919 9.453 13.5 8 13.5 C 6.537 13.5 5.136 12.919 4.108 11.892 C 3.081 10.864 2.5 9.463 2.5 8 L 2.5 8 Z"/>
 </g>
</svg>
